svgs/duotone/battery-slash.svg

<svg xmlns="http://www.w3.org/2000/svg" viewBox="0 0 640 512"><!--! Font Awesome Pro 6.6.0 by @fontawesome - https://fontawesome.com License - https://fontawesome.com/license (Commercial License) Copyright 2024 Fonticons, Inc. --><defs><style>.fa-secondary{opacity:.4}</style></defs><path class="fa-secondary" d="M32 176l0 160c0 44.2 35.8 80 80 80l294.2 0-81.2-64L112 352c-8.8 0-16-7.2-16-16l0-160c0-1.4 .2-2.7 .5-4L45.4 131.7C36.9 144.4 32 159.6 32 176zM154.8 96c27.2 21.3 54.4 42.7 81.7 64L496 160c8.8 0 16 7.2 16 16l0 160c0 8.8-7.2 16-16 16l-14.6 0c20.6 16.2 41.3 32.3 61.9 48.5C563.1 386 576 362.5 576 336l0-16c17.7 0 32-14.3 32-32l0-64c0-17.7-14.3-32-32-32l0-16c0-44.2-35.8-80-80-80L154.8 96z"/><path class="fa-primary" d="M5.1 9.2C13.3-1.2 28.4-3.1 38.8 5.1l592 464c10.4 8.2 12.3 23.3 4.1 33.7s-23.3 12.3-33.7 4.1L9.2 42.9C-1.2 34.7-3.1 19.6 5.1 9.2z"/></svg>

<svg xmlns="http://www.w3.org/2000/svg" viewBox="0 0 640 512"><!--! Font Awesome Pro 6.4.0 by @fontawesome - https://fontawesome.com License - https://fontawesome.com/license (Commercial License) Copyright 2023 Fonticons, Inc. --><defs><style>.fa-secondary{opacity:.4}</style></defs><path class="fa-primary" d="M5.1 9.2C13.3-1.2 28.4-3.1 38.8 5.1l592 464c10.4 8.2 12.3 23.3 4.1 33.7s-23.3 12.3-33.7 4.1L9.2 42.9C-1.2 34.7-3.1 19.6 5.1 9.2z"/><path class="fa-secondary" d="M324.9 352H112c-8.8 0-16-7.2-16-16V176c0-1.4 .2-2.7 .5-4L45.4 131.7C36.9 144.4 32 159.6 32 176V336c0 44.2 35.8 80 80 80H406.2l-81.2-64zM496 352H481.4l61.9 48.5C563.1 386 576 362.5 576 336V320c17.7 0 32-14.3 32-32V224c0-17.7-14.3-32-32-32V176c0-44.2-35.8-80-80-80H154.8l81.7 64H496c8.8 0 16 7.2 16 16V336c0 8.8-7.2 16-16 16z"/></svg>
